X: 603
P: Longways for as many as will
M: 6/4
L: 1/8
K: C
(cde2)c2 G4f2 | (efg2)e2 a4A2 |\
z2 | g4g2 e4e2 | a2^g3a ^g6 |\
(^ga3)e2 f4(ed) | c4(BA) A6 |\
e4f2 e4(dc) | (ef)(^f3e/f/) g4e2 |\
a2A2B2 c2f2e2 | c4B2 c4 |]

